X: 1
T: The Swallow's Tail
K: Ador
R: reel
M: 4/4
L: 1/8
|: "Am" eAA2 eAA2| edef gedB| "G" G2GG dGGG| B/c/d ed g2fg|
"Am" eAA2 eAA2 | edef g2fg| "G" aff2 gee2| BABG A2 gf:|
|: "Am" eaa2 eaa2| edef "C"gedB| "G" G2GG dGGG| "Em" B/c/d ed g2fg|
"Am" eaab aged| "C" B/c/d ed g2fg| "D" aff2 gee2| BABG A2 gf:|
